X: 115
T: Damul
O: Romania
F: http://www.youtube.com/watch?v=2qWoQx0BZcY
W:transcribed by Jutta Weber-Karn
W:http://www.folkloretanznoten.de/
W:converted to abc notation by Seymour Shlien
M: 4/4
L: 1/8
K: Gdor
Q: 1/4=144
V:1
  F2 C2 F2 C2        |BAGF AB c2        |\
  F2 C2 F2 C2        |BAGA F2 z2        :|
V:2
  F,2 C,2 F,2 C,2    |F,2 C,2 F,2 C,2   |\
  F,2 C,2 F,2 C,2    |F,C,B,E, F,2 z2   :|
V:1
  A/B/c A/B/c dc c2  |A/B/c A/B/c dc c2 |\
  A/B/c A/B/c dc c2  |BAGF G2 z2        |
V:2
  F,2 C,2 F,2 C,2    |F,2 C,2 F,2 C,2   |\
  F,2 C,2 F,2 C,2    |G,2 z2 C,2 G,,2   |
V:1
  A/B/c A/B/c dc c2  |A/B/c A/B/c dc c2 |\
  A/B/c A/B/c dc c2  |BAGF G2 z2        |
V:2
  F,2 C,2 F,2 C,2    |F,2 C,2 F,2 C,2   |\
  F,2 C,2 F,2 C,2    |G,,2 =B,,2 C,2 z2 |
V:1
|:A4 B4              |BAGF AB c2        |\
  A4 B4              | BAGF G2 z2 ::
V:2
|:F,,2 A,,2 B,,2 B,,2|B,,2 C,2 F,,2 F,,2|\
  F,,2 A,,2 B,,2 B,,2| G,,2 =B,,2 C,2 z2::
V:1
  F/G/A BF GF A2     |BAGF A/G/F/B/ c2  |\
  F/G/A BF GF A2     |BAGF G2 z2        :|
V:2
  F,2 C,2 F,2 C,2    | F,2 C,2 F,2 C,2  |\
  F,2 C,2 F,2 C,2    |G,,2 =B,,2 C,2 z2 :|



